resources/images/DisabledIcon.svg

<svg xmlns="http://www.w3.org/2000/svg" width="512" height="512" shape-rendering="geometricPrecision" image-rendering="optimizeQuality" fill-rule="evenodd" xmlns:v="https://vecta.io/nano"><path fill="#e2e3e2" d="M233.5-.5h44c100.266 12.5408 171.766 64.5408 214.5 156 10.296 25.184 16.796 51.184 19.5 78v44c-12.541 100.266-64.541 171.766-156 214.5-25.184 10.296-51.184 16.796-78 19.5h-44C133.234 498.959 61.734 446.959 19 355.5c-10.29607-25.184-16.79607-51.184-19.5-78v-44C12.0408 133.234 64.0408 61.734 155.5 19c25.184-10.29607 51.184-16.79607 78-19.5zm8 86c78.004-1.7713 134.504 31.895 169.5 101 19.914 47.639 19.248 94.973-2 142-1.934 4.259-4.268 8.259-7 12L170.5 109c21.978-13.1596 45.645-20.9929 71-23.5zm-133 85l232 231.5c-44.817 25.682-91.817 30.349-141 14C135.83 391.192 98.3296 345.025 87 277.5c-4.8649-38.158 2.3018-73.825 21.5-107z"/></svg>

<?xml version="1.0" encoding="UTF-8"?>
<!DOCTYPE svg PUBLIC "-//W3C//DTD SVG 1.1//EN" "http://www.w3.org/Graphics/SVG/1.1/DTD/svg11.dtd">
<svg xmlns="http://www.w3.org/2000/svg" version="1.1" width="512px" height="512px" style="shape-rendering:geometricPrecision; text-rendering:geometricPrecision; image-rendering:optimizeQuality; fill-rule:evenodd; clip-rule:evenodd" xmlns:xlink="http://www.w3.org/1999/xlink">
<g><path style="opacity:1" fill="#e2e3e2" d="M 233.5,-0.5 C 248.167,-0.5 262.833,-0.5 277.5,-0.5C 377.766,12.0408 449.266,64.0408 492,155.5C 502.296,180.684 508.796,206.684 511.5,233.5C 511.5,248.167 511.5,262.833 511.5,277.5C 498.959,377.766 446.959,449.266 355.5,492C 330.316,502.296 304.316,508.796 277.5,511.5C 262.833,511.5 248.167,511.5 233.5,511.5C 133.234,498.959 61.734,446.959 19,355.5C 8.70393,330.316 2.20393,304.316 -0.5,277.5C -0.5,262.833 -0.5,248.167 -0.5,233.5C 12.0408,133.234 64.0408,61.734 155.5,19C 180.684,8.70393 206.684,2.20393 233.5,-0.5 Z M 241.5,85.5 C 319.504,83.7287 376.004,117.395 411,186.5C 430.914,234.139 430.248,281.473 409,328.5C 407.066,332.759 404.732,336.759 402,340.5C 324.833,263.333 247.667,186.167 170.5,109C 192.478,95.8404 216.145,88.0071 241.5,85.5 Z M 108.5,170.5 C 185.965,247.465 263.299,324.632 340.5,402C 295.683,427.682 248.683,432.349 199.5,416C 135.83,391.192 98.3296,345.025 87,277.5C 82.1351,239.342 89.3018,203.675 108.5,170.5 Z"/></g>
</svg>
